brandFactory_export/2.Regular/Llamada saliente_2Regular.svg

<?xml version="1.0" encoding="UTF-8"?>
<svg width="24px" height="24px" viewBox="0 0 24 24" version="1.1" xmlns="http://www.w3.org/2000/svg" xmlns:xlink="http://www.w3.org/1999/xlink">
    <title>2.Regular/Llamada saliente_2Regular</title>
    <g id="Symbols" stroke="none" stroke-width="1" fill="none" fill-rule="evenodd">
        <g id="2.Regular/Llamada-saliente_2Regular" fill="#5CB615" fill-rule="nonzero">
            <path d="M20.9411765,20.9109244 C21.7344538,20.0806723 22.1277311,19.2672269 22.1109244,18.4840336 C22.097479,17.7344538 21.7042017,16.9680672 20.9445378,16.205042 C20.6554622,15.9092437 20.3294118,15.6504202 19.9731092,15.4386555 C19.3344538,15.0453782 18.702521,14.907563 18.0806723,15.0084034 C17.4319328,15.1193277 16.7731092,15.4991597 16.1310924,16.1411765 C15.9731092,16.2957983 15.8285714,16.4638655 15.6907563,16.6352941 C15.6302521,16.712605 15.5529412,16.7764706 15.4689076,16.8235294 C14.9714286,17.1058824 14.2689076,16.9176471 13.2672269,16.2319328 C12.2252101,15.5159664 11.0218487,14.3495798 10.2084034,13.5394958 L10.1109244,13.4420168 C9.30084034,12.6352941 8.13781513,11.4352941 7.41848739,10.3865546 C6.73277311,9.38487395 6.54453782,8.68571429 6.82352941,8.18151261 C6.87058824,8.09411765 6.93445378,8.02016807 7.01512605,7.95966387 C7.22016807,7.79831933 7.33445378,7.69411765 7.5092437,7.51932773 C8.1512605,6.87731092 8.53445378,6.22184874 8.64201681,5.5697479 C8.74957983,4.94117647 8.61176471,4.32605042 8.22184874,3.69747899 C8.00672269,3.33445378 7.74453782,3.00168067 7.44537815,2.7092437 C6.68907563,1.95294118 5.92268908,1.55966387 5.17310924,1.54621849 C4.39663866,1.52605042 3.57647059,1.92268908 2.74621849,2.71596639 C2.5512605,2.90420168 2.32268908,3.17983193 2.0605042,3.54621849 C1.28403361,4.66218487 1.33781513,6.42016807 2.17815126,8.52436975 C3.11932773,10.887395 4.96806723,13.4857143 7.52268908,16.0403361 L7.55966387,16.0806723 L7.61344538,16.1344538 C10.1714286,18.6890756 12.7697479,20.5378151 15.1327731,21.4789916 C17.2168067,22.3092437 19.0084034,22.3630252 20.0773109,21.6235294 C20.2554622,21.4957983 20.6689076,21.1966387 20.9411765,20.9109244 L20.9411765,20.9109244 Z M22.0134454,15.1394958 C23.0621849,16.1882353 23.6033613,17.3008403 23.6235294,18.4571429 C23.6470588,19.6504202 23.112605,20.8302521 22.0336134,21.9563025 C21.6672269,22.3394958 21.1865546,22.6890756 21.005042,22.8201681 C20.1781513,23.394958 19.2369748,23.6605042 18.1411765,23.6605042 C17.0588235,23.6605042 15.8588235,23.4016807 14.5714286,22.887395 C12.0168067,21.8689076 9.24369748,19.9058824 6.54453782,17.2067227 L6.45378151,17.1159664 C6.42689076,17.092437 6.4,17.0689076 6.37983193,17.0386555 C3.71764706,14.3596639 1.77815126,11.6134454 0.773109244,9.08235294 C-0.262184874,6.49411765 -0.255462185,4.23529412 0.786554622,2.72268908 C0.944537815,2.50084034 1.30756303,2 1.70084034,1.62352941 C2.8302521,0.544537815 4.00336134,0.0168067227 5.2,0.0336134454 C6.35294118,0.0571428571 7.46890756,0.598319328 8.51764706,1.64369748 C8.90420168,2.02689076 9.24369748,2.45714286 9.52268908,2.92436975 C10.0941176,3.8487395 10.3058824,4.83361345 10.1378151,5.82857143 C9.97310924,6.79327731 9.45210084,7.72436975 8.58151261,8.59159664 C8.48739496,8.68907563 8.38655462,8.77983193 8.28571429,8.87058824 C8.34621849,9.00840336 8.4605042,9.22352941 8.66890756,9.52941176 C9.31428571,10.4739496 10.4134454,11.6067227 11.1865546,12.3731092 L11.2840336,12.4705882 C12.0504202,13.2369748 13.1865546,14.3394958 14.1277311,14.9848739 C14.4336134,15.1932773 14.6487395,15.307563 14.7865546,15.3680672 C14.8705882,15.2739496 14.9579832,15.1798319 15.0689076,15.0722689 C15.9361345,14.205042 16.8672269,13.6806723 17.8319328,13.5159664 C18.8302521,13.3478992 19.8117647,13.5596639 20.7529412,14.1411765 C21.1697479,14.389916 21.6,14.7260504 22.0134454,15.1394958 Z M14.3092437,7.84201681 C14.2252101,7.90588235 14.2084034,7.9394958 14.2016807,7.97647059 C14.194958,8.01680672 14.2084034,8.0605042 14.2352941,8.0907563 L15.3445378,9.32773109 C15.405042,9.40504202 15.4386555,9.43529412 15.492437,9.43865546 C15.502521,9.42857143 15.6033613,9.38823529 15.6134454,9.37815126 L18.5680672,6.84033613 C18.8773109,6.57142857 19.3478992,6.60168067 19.6235294,6.90420168 L20.1848739,7.52268908 L21.0991597,3.24033613 L21.0857143,3.23697479 L16.7697479,3.57310924 L17.3109244,4.17815126 C17.589916,4.4907563 17.5630252,4.96806723 17.2537815,5.24705882 L17.2504202,5.25042017 L14.3092437,7.84201681 L14.3092437,7.84201681 Z M14.1781513,10.2857143 L13.112605,9.10588235 C12.5008403,8.42689076 12.5546218,7.38151261 13.2336134,6.7697479 C13.2739496,6.73277311 13.3176471,6.69579832 13.3647059,6.66218487 L15.6806723,4.62184874 L15.5462185,4.47394958 C15.1663866,4.05042017 15.0554622,3.47563025 15.2537815,2.97142857 C15.4554622,2.46722689 15.9327731,2.12436975 16.5042017,2.08067227 L20.9915966,1.73445378 L21.112605,1.73109244 C21.5495798,1.73109244 21.9663866,1.91596639 22.2487395,2.23865546 C22.5613445,2.59495798 22.6823529,3.07563025 22.5815126,3.54957983 L21.6336134,7.97647059 C21.5159664,8.52436975 21.1226891,8.9512605 20.6016807,9.08907563 C20.0840336,9.2302521 19.5294118,9.05882353 19.1529412,8.63865546 L18.994958,8.46386555 L16.5983193,10.5243697 C16.2655462,10.8336134 15.8184874,10.9848739 15.3647059,10.9411765 C14.8941176,10.9042017 14.4638655,10.6621849 14.1781513,10.2857143 L14.1781513,10.2857143 Z" id="Llamada-saliente_2Regular"></path>
        </g>
    </g>
</svg>

<svg width="24" height="24" viewBox="0 0 24 24" xmlns="http://www.w3.org/2000/svg"><path d="M20.941 20.91c.793-.83 1.187-1.643 1.17-2.426-.014-.75-.407-1.516-1.166-2.279a4.763 4.763 0 00-.972-.766c-.639-.394-1.27-.531-1.892-.43-.65.11-1.308.49-1.95 1.132a5.57 5.57 0 00-.44.494.744.744 0 01-.222.189c-.498.282-1.2.094-2.202-.592-1.042-.716-2.245-1.882-3.059-2.693l-.097-.097c-.81-.807-1.973-2.007-2.693-3.055-.685-1.002-.873-1.701-.594-2.205a.674.674 0 01.191-.222c.205-.162.32-.266.494-.44.642-.643 1.025-1.298 1.133-1.95.108-.629-.03-1.244-.42-1.873a4.82 4.82 0 00-.777-.988c-.756-.756-1.522-1.15-2.272-1.163-.776-.02-1.597.377-2.427 1.17a6.186 6.186 0 00-.685.83c-.777 1.116-.723 2.874.117 4.978.941 2.363 2.79 4.962 5.345 7.516l.037.04.053.054c2.558 2.555 5.157 4.404 7.52 5.345 2.084.83 3.875.884 4.944.145.178-.128.592-.427.864-.713zm1.072-5.77c1.05 1.048 1.59 2.16 1.61 3.317.024 1.193-.51 2.373-1.59 3.5-.366.382-.846.732-1.028.863-.827.575-1.768.84-2.864.84-1.082 0-2.282-.258-3.57-.773-2.554-1.018-5.327-2.981-8.026-5.68l-.091-.091c-.027-.024-.054-.047-.074-.077-2.662-2.68-4.602-5.426-5.607-7.957-1.035-2.588-1.028-4.847.014-6.36.158-.221.52-.722.914-1.098C2.83.544 4.003.017 5.2.034c1.153.023 2.269.564 3.318 1.61.386.383.726.813 1.005 1.28.571.925.783 1.91.615 2.905-.165.964-.686 1.895-1.556 2.763-.095.097-.195.188-.296.279.06.137.175.353.383.658.645.945 1.744 2.078 2.518 2.844l.097.098c.766.766 1.903 1.868 2.844 2.514.306.208.52.323.659.383a5.47 5.47 0 01.282-.296c.867-.867 1.798-1.391 2.763-1.556.998-.168 1.98.044 2.92.625a6.58 6.58 0 011.261.998zM14.31 7.841c-.084.064-.1.097-.107.134a.141.141 0 00.033.115l1.11 1.237c.06.077.094.107.147.11.01-.01.111-.05.121-.06l2.955-2.538a.758.758 0 011.056.064l.56.619.915-4.283-.013-.003-4.316.336.54.605a.759.759 0 01-.056 1.07l-.004.002-2.94 2.592zm-.13 2.444l-1.066-1.18a1.654 1.654 0 01.252-2.444l2.316-2.04-.135-.148c-.38-.424-.49-.998-.292-1.503.201-.504.679-.847 1.25-.89l4.488-.347.12-.003c.438 0 .854.185 1.137.508a1.5 1.5 0 01.333 1.31l-.948 4.427c-.118.548-.511.975-1.032 1.113-.518.141-1.073-.03-1.45-.45l-.157-.175-2.397 2.06c-.332.31-.78.46-1.233.417-.47-.037-.901-.279-1.187-.655z" fill="#5CB615" fill-rule="nonzero"/></svg>
